X: 25181
T: Major Molle
R: reel
M: 4/4
K: Adorian
Aeed cABG|Aeed c2Bc|Aeed efge|dBGB edcB|
Aeed cABG|Aeed c2Bc|Aeed efge|dBGB edcB||
AE E2 cABG|AE E2 c2 Bc|AE E2 cABd|BGGB d2 cB|
AE E2 cABG|AE E2 c2 Bc|Aeed efge|dBGB edcB||

